X: 104
T: Cantantibus organis – Allegretto quasi pastorale
C: Franciszek Walczyński
%%abc-version 2.0
%%abcx-abcm2ps-target-version 5.9.1 (29 Sep 2008)
%%abc-creator hum2abc beta
%%abcx-conversion-date 2021/10/04 07:38:38
%%abc-edited-by Kamil Watkowski
%%abcx-initial-encoding-date 2021-08-09
%%humdrum-veritas 2787978104
%%humdrum-veritas-data 71699722
%%linebreak <none>
%%barnumbers 0
L: 1/16
M: 6/8
N: Derived from pl-kozmzk--mzk-m-346--005_walczynski-franciszek--cantantibus-organis-allegretto-quasi-pastorale.krn
%%staves {1 2}
V: 1 clef=treble
V: 2 clef=bass
K: C
[V:1] E2A2c2 B2!accent!e4- | 
[V:2] z12 & z12 | 
[V:1] e6{/^d}[B6e6] & dcBdcAE6 | 
[V:2] z12 & z12 | 
[V:1] z12 & z12 | 
[V:2] E,2A,2C2 B,2!accent!E4- | 
[V:1] z12 & !fermata!z12 | 
[V:2] E6{/^D}!fermata![B,6E6] & DCB,DCA,!fermata!E,6 | 
[V:1] ^cd!trill!cBAc {/^d}!accent!e6 & E6-[B6E6] | 
[V:2] A,2B,2^CA, ^G,2D2CB, & E,12- | 
[V:1] =cd!trill!cBAc {/^d}!accent!e6 & E6-[E6B6] | 
[V:2] A,2B,2B,A,^G,6 & E,6-E,4D,2 | 
[V:1] e6d4AB & E6F6 | 
[V:2] !accent!A,4^G,A,A,6- & C,6D,6 | 
[V:1] c4B2A6 & E2A2^G2A6 | 
[V:2] A,B,CDEDC6 & E,6A,,6 | 
[V:1] z12 & z12 | 
[V:2] z12 & E,,2A,,2C,2 B,,2E,4 | 
[V:1] z2 z2 [D2^G2B2]!fermata![C6E6A6] |]  
[V:2] z12 & D,C, B,,2F,E,!fermata!A,,6 |]  


